!!!OTL: 112. Freylekhs
!!!Genre:	Freylekhs
!!!Mode:	Altered Dorian
!!!Listening/dance:	dance
!!!:	*G:
!!!One_Mode:	no
**kern
*thru
*part1
*staff1
*clefG2
*k[b-]
*G:
=10:|!|:
*k[f#]
*>B
8gL
16ggL
16ffJJ
16eeLL
16dd
16cc#X
16b-JJ
=7
8cc#XL
16b-L
16aJJ
8gL
8ggJ
=8
8gL
16ggL
16ffJJ
16eeLL
16dd
16cc#X
16b-JJ
=9
8cc#XL
16b-L
16aJJ
4g
!!!Begin-Modulation
*G:
=10:|!|:
*k[f#]
*>C
!LO:TX:a:i:t=G-major
8.bnL
16aJk
16bLL
16cc
16dd
16ccJJ
=11
8bL
16bL
16aJJ
16bLL
16cc
16dd
16ccJJ
=12
8bL
16bL
16aJJ
16bLL
16cc
16dd
16ccJJ
=13
(>16bLL
16cc)
(>16a
16bJJ)
4g
=14:|!|:
*>C
!LO:TX:a:i:t=G-major
8.bnL
16aJk
16bLL
16cc
16dd
16ccJJ
=11
8bL
16bL
16aJJ
16bLL
16cc
16dd
16ccJJ
=12
8bL
16bL
16aJJ
16bLL
16cc
16dd
16ccJJ
=13
(>16bLL
16cc)
(>16a
16bJJ)
4g
=14:|!|:
*>D
8a
4a
8cc
=15
8.bL
16aJk
16bLL
16ccJ
8ddJ
=16
8a
4a
8cc
=17
(16bLL
16cc)
(16a
16bJJ)
4g
=:|!
!!!End-Modulation
*>D
8a
4a
8cc
=15
8.bL
16aJk
16bLL
16ccJ
8ddJ
=16
8a
4a
8cc
=17
(16bLL
16cc)
(16a
16bJJ)
4g
=:|!
!!!End-Modulation
*-
